assets/flags-color/Tt.svg

<svg xmlns="http://www.w3.org/2000/svg" viewBox="0 0 512 512"><path fill="#ff4b55" d="M0 0h512v512H0z"/><g fill="#f5f5f5"><path d="M0 0l361.931 512h26.483L26.483 0zM150.069 0h-26.483l361.931 512H512z"/></g><path fill="#464655" d="M26.483 0l361.931 512h97.103L123.586 0z"/></svg>

<svg xmlns="http://www.w3.org/2000/svg" x="0" y="0" enable-background="new 0 0 512 512" version="1.1" viewBox="0 0 512 512" xml:space="preserve"><path fill="#FF4B55" d="M0 0H512V512H0z"/><g fill="#F5F5F5"><path d="M0 0 361.931 512 388.414 512 26.483 0z"/><path d="M150.069 0 123.586 0 485.517 512 512 512z"/></g><path fill="#464655" d="M26.483 0 388.414 512 485.517 512 123.586 0z"/></svg>
